Obsidian/actions/16s/help-about-symbolic.svg

<svg height="16" viewBox="0 0 16 16" width="16" xmlns="http://www.w3.org/2000/svg"><path d="m8 2a6.9999959 5.4999796 0 0 0 -7 5.5 6.9999959 5.4999796 0 0 0 3.0273438 4.527344c.0682999.2081.1432518.556637-.1113282 1.023437-.3560896.6531-.8828125.966797-.8828125.966797l-.0332031.982422h1s1.4663972-.5588 1.9667969-1c.4214797-.3713.5372156-.927947.5722656-1.123047a6.9999959 5.4999796 0 0 0 1.4609375.123047 6.9999959 5.4999796 0 0 0 7-5.5 6.9999959 5.4999796 0 0 0 -7-5.5zm-.8261719.84375h1.546875v1.7226562h-1.546875zm-1.5136719 2.7460938h3.0605469v4.5078122h1.9199219v1.132813h-5.3925781v-1.132813h1.9257812v-3.3749998h-1.5136719z" fill="#bebebe"/></svg>

<?xml version="1.0" encoding="UTF-8" standalone="no"?>
<!-- Created with Inkscape (http://www.inkscape.org/) -->

<svg
   xmlns:dc="http://purl.org/dc/elements/1.1/"
   xmlns:cc="http://creativecommons.org/ns#"
   xmlns:rdf="http://www.w3.org/1999/02/22-rdf-syntax-ns#"
   xmlns:svg="http://www.w3.org/2000/svg"
   xmlns="http://www.w3.org/2000/svg"
   xmlns:sodipodi="http://sodipodi.sourceforge.net/DTD/sodipodi-0.dtd"
   xmlns:inkscape="http://www.inkscape.org/namespaces/inkscape"
   width="16"
   height="16"
   viewBox="0 0 16 16"
   id="svg4185"
   version="1.1"
   inkscape:version="0.91 r13725"
   sodipodi:docname="help-about-symbolic.svg">
  <defs
     id="defs4187" />
  <sodipodi:namedview
     id="base"
     pagecolor="#ffffff"
     bordercolor="#666666"
     borderopacity="1.0"
     inkscape:pageopacity="0.0"
     inkscape:pageshadow="2"
     inkscape:zoom="22.4"
     inkscape:cx="7.4784323"
     inkscape:cy="10.423838"
     inkscape:document-units="px"
     inkscape:current-layer="layer1"
     showgrid="true"
     units="px"
     inkscape:snap-bbox="true"
     inkscape:bbox-nodes="true"
     inkscape:bbox-paths="true"
     inkscape:snap-bbox-edge-midpoints="true"
     inkscape:snap-bbox-midpoints="true"
     inkscape:snap-global="false"
     inkscape:window-width="1500"
     inkscape:window-height="814"
     inkscape:window-x="270"
     inkscape:window-y="89"
     inkscape:window-maximized="0">
    <inkscape:grid
       type="xygrid"
       id="grid4739" />
  </sodipodi:namedview>
  <metadata
     id="metadata4190">
    <rdf:RDF>
      <cc:Work
         rdf:about="">
        <dc:format>image/svg+xml</dc:format>
        <dc:type
           rdf:resource="http://purl.org/dc/dcmitype/StillImage" />
        <dc:title></dc:title>
      </cc:Work>
    </rdf:RDF>
  </metadata>
  <g
     inkscape:label="Layer 1"
     inkscape:groupmode="layer"
     id="layer1"
     transform="translate(0,-1036.3622)">
    <path
       style="opacity:1;fill:#bebebe;fill-opacity:1"
       d="M 8 2 A 6.9999959 5.4999796 0 0 0 1 7.5 A 6.9999959 5.4999796 0 0 0 4.0273438 12.027344 C 4.0956437 12.235444 4.1705956 12.583981 3.9160156 13.050781 C 3.559926 13.703881 3.0332031 14.017578 3.0332031 14.017578 L 3 15 L 4 15 C 4 15 5.4663972 14.4412 5.9667969 14 C 6.3882766 13.6287 6.5040125 13.072053 6.5390625 12.876953 A 6.9999959 5.4999796 0 0 0 8 13 A 6.9999959 5.4999796 0 0 0 15 7.5 A 6.9999959 5.4999796 0 0 0 8 2 z M 7.1738281 2.84375 L 8.7207031 2.84375 L 8.7207031 4.5664062 L 7.1738281 4.5664062 L 7.1738281 2.84375 z M 5.6601562 5.5898438 L 8.7207031 5.5898438 L 8.7207031 10.097656 L 10.640625 10.097656 L 10.640625 11.230469 L 5.2480469 11.230469 L 5.2480469 10.097656 L 7.1738281 10.097656 L 7.1738281 6.7226562 L 5.6601562 6.7226562 L 5.6601562 5.5898438 z "
       transform="translate(0,1036.3622)"
       id="path4138" />
    <g
       transform="matrix(0.9602398,0,0,0.91702178,0.12296443,1035.9022)"
       style="font-style:normal;font-variant:normal;font-weight:bold;font-stretch:normal;font-size:11.25px;line-height:125%;font-family:'DejaVu Sans Mono';-inkscape-font-specification:'DejaVu Sans Mono, Bold';text-align:start;letter-spacing:0px;word-spacing:0px;writing-mode:lr-tb;text-anchor:start;fill:#000000;fill-opacity:1;stroke:none;stroke-width:1px;stroke-linecap:butt;stroke-linejoin:miter;stroke-opacity:1"
       id="flowRoot4138" />
  </g>
</svg>
